packages/ffe-icons/icons/filled/sm/polyline.svg

<svg xmlns="http://www.w3.org/2000/svg" height="20" viewBox="0 -960 960 960" width="20"><path d="M610.001-158.769v-29.385L319.308-346.001H206.769q-22.008 0-37.388-15.417-15.38-15.416-15.38-37.475v-90.587q0-22.059 15.38-37.289t37.388-15.23h93.847l117.385-138.155v-121.077q0-22.008 15.417-37.388 15.416-15.38 37.475-15.38h90.587q22.059 0 37.289 15.417 15.23 15.416 15.23 37.475v90.587q0 22.059-15.38 37.289t-37.388 15.23h-93.847L349.999-519.846v131l261.079 142.232v-13.847q4.282-18.269 18.527-29.904 14.244-11.634 33.164-11.634h90.462q22.008 0 37.388 15.417 15.38 15.416 15.38 37.475v90.587q0 22.059-15.417 37.289-15.416 15.23-37.475 15.23H662.52q-22.059 0-37.289-15.38t-15.23-37.388Z"/></svg>

<svg xmlns="http://www.w3.org/2000/svg" height="20" viewBox="0 -960 960 960" width="20"><path d="M610-158.77v-29.38L319.31-346H206.77q-22.01 0-37.39-15.42Q154-376.83 154-398.89v-90.59q0-22.06 15.38-37.29T206.77-542h93.85L418-680.15v-121.08q0-22.01 15.42-37.39Q448.83-854 470.89-854h90.59q22.06 0 37.29 15.42Q614-823.17 614-801.11v90.59q0 22.06-15.38 37.29T561.23-658h-93.85L350-519.85v131l261.08 142.24v-13.85q4.28-18.27 18.52-29.9Q643.85-302 662.77-302h90.46q22.01 0 37.39 15.42Q806-271.17 806-249.11v90.59q0 22.06-15.42 37.29Q775.17-106 753.11-106h-90.59q-22.06 0-37.29-15.38T610-158.77Z"/></svg>
